!!!SOCIAL_FUNCTION:	isleta
!!!PDT:	1957
!!!OTL: No_50_War_Song_(c).krn
!!!LING_GROUP: Keresan
!!!LANG: Tone
!!!REG: Southwest
**kern
*staff1
=1-
*clefF4
*k[f#c#g#d#]
*M3/4
8.E\L
16E\Jk
4E\
8E\
16r
16e\
=2!|:
*M2/4
4e\
8B\
16r
16e\
=3
4e\
8B\
16r
16G#\
=4
4B\
8A\
16r
16F#\
=5
4B\
8A\
16r
16F#\
=6
8.E\L
16E\Jk
8.F#\L
16F#\Jk
=7
*M3/4
8.G#\L
16F#\Jk
4E\
4E\
=8
*M2/4
4E\
8E\
16r
16e\
=9:|!
*M2/4
4E\
8E\
16r
16B\
=10!|:
16B\LK
8.B\J
8F#\
16r
16B\
=11
*M3/4
4B\
4B\
4B\
=12
16B\LK
8.A\J
8.F#\L
16F#\Jk
8E\
8r
=13
*M2/4
8.F#\L
16F#\Jk
8.G#\L
16F#\Jk
=14
4E\
4E\
=15
4E\
8E\
16r
16B\
=16:|!
4E\
8E\
16r
16e\
=17
4e\
8B\
16r
16e\
=18
4e\
8B\
16r
16G#\
=19
4B\
8A\
16r
16F#\
=20
4B\
8A\
16r
16F#\
=21
8.E\L
16E\Jk
8.F#\L
16G#\Jk
=22
*M3/4
8.G#\L
16F#\Jk
4E\
4E\
=23
4E\
4E\
4r
==
*-
